X: 08019
T: CAREY'S HORNPIPE
C: Bob McQuillen 6 Nor 90
B: Bob's Note Book 8 #19
%R: hornpipe, reel
Z: 2021 John Chambers <jc:trillian.mit.edu>
M: C
L: 1/8
K: D
AG \
| FABA dAFA | dfec dAFA | dfgf edAd | fafd e2AB |\
| dAFA BAFA | dfec dAFA | dfgf edcB | A2d2 d2 :|
|: fe \
| defg afdf | gagf edcA | fgaf dfgf | edBd AGFE |\
| DFAF GBAG | FAdB AGFA | dfaf gecd | e2d2 d2 :|
%%begintext align
%% Carey Bluhm is a
%% reaal fine fiddler from Fitzwilliam, N.H., and
%% sometimes he and I get to play a dance in that nice
%% old hall over there where Duke Miller called for so many years.
%%endtext

%%sep 1 1 500

%%sep 1 1 500

